X: 30450
T: Old Wexford, The
R: reel
M: 4/4
K: Adorian
f|g/a/g eg dB B/d/B|gefg a3 f|g/a/g eg dBBA|B/c/d ge d2 ef|
g/a/g eg dB B2|g/a/g eg a2 ba|g/a/g eg dBBA|B/c/d ge dBAG||
EA A/B/A GB B/d/B|e2 ge dBAG|EA A/B/A GA B/c/d|edge dBAG|
EA A/B/A GB B/d/B|e2 ge dBAG|EA A/B/A GA B/c/d|edge d3||

